X:1
T:Hr kommer pgar
R:Engelska
Z:Patrik Mnsson, 7/7 2008
O:Skne
B:Omtyckta Sknska allspelsltar
M:2/4
L:1/16
Q:1/4=100
K:G
|: "G"D2EF G2BB | "D"AGFA "G"G2B2 | D2EF G2B2 | "D"AGFA "G"G4 :|
|: "G"BcdB d2dc | "D"A2Bc "G"B2G2 | BcdB d2dc | "D"A2BA "G"G4 :|
